src/assets/duotone/Alarm.svg

<svg width="24" height="24" viewBox="0 0 24 24"  xmlns="http://www.w3.org/2000/svg">
<path opacity="0.4" d="M22.75 22C22.75 22.41 22.41 22.75 22 22.75H2C1.59 22.75 1.25 22.41 1.25 22C1.25 21.59 1.59 21.25 2 21.25H22C22.41 21.25 22.75 21.59 22.75 22Z" />
<path d="M21 15V21.25H3V15C3 10.03 7.03 6 12 6C16.97 6 21 10.03 21 15Z" />
<path opacity="0.4" d="M12 3.75C11.59 3.75 11.25 3.41 11.25 3V2C11.25 1.59 11.59 1.25 12 1.25C12.41 1.25 12.75 1.59 12.75 2V3C12.75 3.41 12.41 3.75 12 3.75Z" />
<path opacity="0.4" d="M4.99994 5.74994C4.80994 5.74994 4.61994 5.67994 4.46994 5.52994L3.46994 4.52994C3.17994 4.23994 3.17994 3.75994 3.46994 3.46994C3.75994 3.17994 4.23994 3.17994 4.52994 3.46994L5.52994 4.46994C5.81994 4.75994 5.81994 5.23994 5.52994 5.52994C5.37994 5.67994 5.18994 5.74994 4.99994 5.74994Z" />
<path opacity="0.4" d="M18.9999 5.74994C18.8099 5.74994 18.6199 5.67994 18.4699 5.52994C18.1799 5.23994 18.1799 4.75994 18.4699 4.46994L19.4699 3.46994C19.7599 3.17994 20.2399 3.17994 20.5299 3.46994C20.8199 3.75994 20.8199 4.23994 20.5299 4.52994L19.5299 5.52994C19.3799 5.67994 19.1899 5.74994 18.9999 5.74994Z" />
</svg>

<?xml version="1.0" encoding="UTF-8"?>
<svg width="24" height="24" viewBox="0 0 24 24" xmlns="http://www.w3.org/2000/svg">
 <path d="m22.75 22c0 0.41-0.34 0.75-0.75 0.75h-20c-0.41 0-0.75-0.34-0.75-0.75s0.34-0.75 0.75-0.75h20c0.41 0 0.75 0.34 0.75 0.75z" opacity=".4"/>
 <path d="m21 15v6.25h-18v-6.25c0-4.97 4.03-9 9-9s9 4.03 9 9z"/>
 <path d="m12 3.75c-0.41 0-0.75-0.34-0.75-0.75v-1c0-0.41 0.34-0.75 0.75-0.75s0.75 0.34 0.75 0.75v1c0 0.41-0.34 0.75-0.75 0.75z" opacity=".4"/>
 <path d="m4.9999 5.7499c-0.19 0-0.38-0.07-0.53-0.22l-1-1c-0.29-0.29-0.29-0.77 0-1.06s0.77-0.29 1.06 0l1 1c0.29 0.29 0.29 0.77 0 1.06-0.15 0.15-0.34 0.22-0.53 0.22z" opacity=".4"/>
 <path d="m19 5.7499c-0.19 0-0.38-0.07-0.53-0.22-0.29-0.29-0.29-0.77 0-1.06l1-1c0.29-0.29 0.77-0.29 1.06 0s0.29 0.77 0 1.06l-1 1c-0.15 0.15-0.34 0.22-0.53 0.22z" opacity=".4"/>
</svg>
